dist/svgs/carbon-icons/svg/applications.svg

<svg xmlns="http://www.w3.org/2000/svg" fill-rule="evenodd" viewBox="0 0 23 23"><path d="M5.8 1.2v4.7H1.2V1.2h4.6zM7 0H0v7h7V0zm6.8 1.2v4.7H9.2V1.2h4.6zM15 0H8v7h7V0zm6.8 1.2v4.7h-4.7V1.2h4.7zM23 0h-7v7h7V0zM5.8 9.2v4.7H1.2V9.2h4.6zM7 8H0v7h7V8zm6.8 1.2v4.7H9.2V9.2h4.6zM15 8H8v7h7V8zm6.8 1.2v4.7h-4.7V9.2h4.7zM23 8h-7v7h7V8zM5.8 17.2v4.7H1.2v-4.7h4.6zM7 16H0v7h7v-7zm6.8 1.2v4.7H9.2v-4.7h4.6zM15 16H8v7h7v-7zm6.8 1.2v4.7h-4.7v-4.7h4.7zM23 16h-7v7h7v-7z"/></svg>

<svg width="23px" height="23px" viewBox="0 0 23 23" version="1.1" xmlns="http://www.w3.org/2000/svg" xmlns:xlink="http://www.w3.org/1999/xlink" fill-rule="evenodd">
	<path d="M5.8,1.2 L5.8,5.9 L1.2,5.9 L1.2,1.2 L5.8,1.2 L5.8,1.2 Z M7,0 L0,0 L0,7 L7,7 L7,0 L7,0 L7,0 Z"></path>
	<path d="M13.8,1.2 L13.8,5.9 L9.2,5.9 L9.2,1.2 L13.8,1.2 L13.8,1.2 Z M15,0 L8,0 L8,7 L15,7 L15,0 L15,0 L15,0 Z"></path>
	<path d="M21.8,1.2 L21.8,5.9 L17.1,5.9 L17.1,1.2 L21.8,1.2 L21.8,1.2 Z M23,0 L16,0 L16,7 L23,7 L23,0 L23,0 L23,0 Z"></path>
	<path d="M5.8,9.2 L5.8,13.9 L1.2,13.9 L1.2,9.2 L5.8,9.2 L5.8,9.2 Z M7,8 L0,8 L0,15 L7,15 L7,8 L7,8 L7,8 Z"></path>
	<path d="M13.8,9.2 L13.8,13.9 L9.2,13.9 L9.2,9.2 L13.8,9.2 L13.8,9.2 Z M15,8 L8,8 L8,15 L15,15 L15,8 L15,8 L15,8 Z"></path>
	<path d="M21.8,9.2 L21.8,13.9 L17.1,13.9 L17.1,9.2 L21.8,9.2 L21.8,9.2 Z M23,8 L16,8 L16,15 L23,15 L23,8 L23,8 L23,8 Z"></path>
	<path d="M5.8,17.2 L5.8,21.9 L1.2,21.9 L1.2,17.2 L5.8,17.2 L5.8,17.2 Z M7,16 L0,16 L0,23 L7,23 L7,16 L7,16 L7,16 Z"></path>
	<path d="M13.8,17.2 L13.8,21.9 L9.2,21.9 L9.2,17.2 L13.8,17.2 L13.8,17.2 Z M15,16 L8,16 L8,23 L15,23 L15,16 L15,16 L15,16 Z"></path>
	<path d="M21.8,17.2 L21.8,21.9 L17.1,21.9 L17.1,17.2 L21.8,17.2 L21.8,17.2 Z M23,16 L16,16 L16,23 L23,23 L23,16 L23,16 L23,16 Z"></path>
</svg>
